-----BEGIN PGP SIGNATURE-----
Version: GnuPG v1.4.11 (GNU/Linux)

iQIcBAABCAAGBQJUFGupAAoJENNXdQf6QOnialsP/R95Js44Y63zUl7kaCjlrKkV
lkylXbENiL3bVhxwJ/VxsxBAZ9owwuqafPcu6lzSCb+KV5fd8o07fF+NXvEnQydh
T2aCjuvMSoOZz4n0JVzkhfFXvYip4o70BDJKXGE+KZlgm7vDtEqSzrxpmXFYavid
uLQkhldWrDZjqvxd27w78aGyYx93tvo1XFoToSsv7L3z119X7/eVnlxsw2oLbYDK
lkZ3gCZppV0tvZSeP+uRjAeHfBv7+380qYgr7TX382/c9xtEpYqQfOHf1XCK36uq
Zu9GSlus15xiP/r7KBa/9AqTK09VDJWRhpjz98LCKz0YCZbecC6EW1jvEWcWJDOA
kU7bihpcsbIa16BWmjmLrVCVgCl0wgS27TZtThj5o7pkXXX4VeGf1OEuZcp9id0d
LV0JHkA0U43GowdJsvB4Mz209fA0DalLX2ux1PqGpO+qZxWr98dOeEJrUWROslrd
hGW/gBh6U4c7GPHwcQyct5ZaWpEYc2HEc84t2ZL5+4J08QenMjgtc2co3D1CDAa+
uOJOxuWLokZiYm//2SwoRHjdvZv7QX+xWFB7k86vY0So8mQngWp2/YljzeuFRUVq
R9TJlXc6wPbX6C4cTxa+xEt8acoy3t3auchB3eF66Q0NF77R9d0OlMJT3YCW8uBi
LAvPGuSdRXg3i3LRiQbC
=3eHd
-----END PGP SIGNATURE-----
