-----BEGIN PGP SIGNATURE-----
Version: GnuPG v1

iQIcBAABCAAGBQJUqc8hAAoJENNXdQf6QOni8xEP/26Ky2Kh0oPJ3mKVYXOTjkyp
WqadSxxbTlE9cIARsptYAErdfPLvxpmh8loOsUQstDmKW7TMsIQaC5xE56C41QaX
ML0Mi0FdUzLAHtf9Kkm0oIGRIRJc5kKyydcfTXeylSVsluQaslJkr9X+NjPJ3Wb3
TSg7OlgRUnXDtuZHe4h58vcsTYVSV+xrOMclkK4787m15hAgBRDiqC7pJ4Lehhfu
EIOvdAqk8hj+ISwgOj087OV5rX936+3jnm/pbl/hXLmw8gbb3TeSYVykV8nobqNE
ennrOCA7/Jj3clll0YhmTkrMr/Uld2e8SGPYnas6FChmq2Cr652VfcxwW/GICJ3E
t9bYqkj7S/GcvjmkYuctN9ZgbxDjwMfM3qA9NlpNulF9ot9SO90VpNVIw7edg2TE
wx9rD4S/rKJtztbJ8RWM9R+2dFcdpvMRD4lFVpGXdkY4KOm1my55D/aDNptNaFNR
O82KneAVW8z3MaLxo4/Plal/DqkWxS7SMES+XnqQGlGG+1GcZx4Sw3WzQyl2u6PP
HvINODQQ24xgUupytLA0rFqv/x6aXVwERKYnWXS91ZA8S2qAi1636rZjYK4QjVRp
KNRmzDxhPQeGmj64x35zh8mFv9+aYCdGNQRSlz09gVY1FYBWyGohLKRdyfKVeKgI
uMWZyNQVDJInBB8VXV2Q
=2+Y4
-----END PGP SIGNATURE-----
